X: 164
T:Laird O' Cockpen
% Nottingham Music Database
S:Jimmy MacKay, via EF
Y:AB
M:6/8
K:C
P:A
G|"C"EGG AGG|"C"cGG AGG|"C"EGG Ged|"F"cAA A2G|
"C"EGG AGG|"C"cGG AGG|"C"efg "G/b"e2d|"Am"cAA A2:|
P:B
d|"Am"egg eaa|"Am"eag fed|"Am"egg eag|"Dm"fed "E7"e3|
"Am"egg eaa|"Am"eag fed|"Dm"edc "E7"e2d|"Am"cAA A2:|


